src/assets/random.svg

<svg width="284" height="308" viewBox="0 0 284 308" fill="none" xmlns="http://www.w3.org/2000/svg">
<g clip-path="url(#clip0)">
<path d="M167.238 126.909H250.441V162.942H167.238V126.909Z" fill="#EAE1E1"/>
<path d="M167.238 207.985C167.238 229.735 181.554 247.93 200.52 252.115V289.662H183.879V307.679H233.801V289.662H217.16V252.115C236.125 247.93 250.441 229.735 250.441 207.985V180.959H167.238V207.985Z" fill="#EAE1E1"/>
<path d="M83.4805 198.976H100.121V253.027H83.4805V198.976Z" fill="#EAE1E1"/>
<path d="M147.321 137.932C142.715 141.099 137.499 143.316 131.909 144.319L138.209 157.962L95.7296 180.959H116.762V271.044H66.8398V180.959H87.8719L45.3929 157.963L51.693 144.319C46.1023 143.317 40.8866 141.099 36.2804 137.932C34.5276 142.908 33.5586 148.299 33.5586 153.934V307.679H91.8008H150.043V153.934C150.043 148.299 149.074 142.908 147.321 137.932V137.932Z" fill="#EAE1E1"/>
<path d="M66.8398 0.189331H116.762V18.2063H66.8398V0.189331Z" fill="#EAE1E1"/>
<path d="M91.8008 66.2113C99.217 60.626 107.779 56.9331 116.762 55.5074V36.2233H66.8398V55.508C75.8225 56.9331 84.3846 60.626 91.8008 66.2113V66.2113Z" fill="#EAE1E1"/>
<path d="M125.082 72.8577C111.488 72.8577 99.3967 79.9551 91.8008 90.9058C84.2049 79.9551 72.1138 72.8577 58.5195 72.8577C44.7561 72.8577 33.5586 84.9813 33.5586 99.8831C33.5586 114.785 44.7561 126.909 58.5195 126.909H78.338L67.7179 149.905L82.6013 157.963L91.8002 138.044L100.999 157.963L115.883 149.905L105.264 126.909H125.082C138.845 126.909 150.043 114.785 150.043 99.8831C150.043 84.9813 138.845 72.8577 125.082 72.8577ZM50.1992 99.8831C50.1992 94.9158 53.9317 90.8746 58.5195 90.8746C69.3676 90.8746 78.6208 98.4051 82.0549 108.892H58.5195C53.9317 108.892 50.1992 104.85 50.1992 99.8831ZM125.082 108.892H101.547C104.98 98.4051 114.234 90.8746 125.082 90.8746C129.67 90.8746 133.402 94.9158 133.402 99.8831C133.402 104.85 129.67 108.892 125.082 108.892Z" fill="#EAE1E1"/>
</g>
<defs>
<clipPath id="clip0">
<rect width="284" height="307.489" fill="white" transform="translate(0 0.189331)"/>
</clipPath>
</defs>
</svg>

<svg width="284" height="308" fill="none" xmlns="http://www.w3.org/2000/svg"><g clip-path="url(#a)" fill="#EAE1E1"><path d="M167.238 126.909h83.203v36.033h-83.203v-36.033ZM167.238 207.985c0 21.75 14.316 39.945 33.282 44.13v37.547h-16.641v18.017h49.922v-18.017H217.16v-37.547c18.965-4.185 33.281-22.38 33.281-44.13v-27.026h-83.203v27.026ZM83.48 198.976h16.641v54.051h-16.64v-54.051Z"/><path d="M147.321 137.932c-4.606 3.167-9.822 5.384-15.412 6.387l6.3 13.643-42.48 22.997h21.033v90.085H66.84v-90.085h21.032l-42.48-22.996 6.301-13.644c-5.59-1.002-10.806-3.22-15.413-6.387a48.102 48.102 0 0 0-2.721 16.002v153.745h116.484V153.934c0-5.635-.969-11.026-2.722-16.002ZM66.84.19h49.922v18.016H66.84V.19ZM91.8 66.211c7.417-5.585 15.979-9.278 24.962-10.704V36.223H66.84v19.285c8.983 1.425 17.545 5.118 24.96 10.703Z"/><path d="M125.082 72.858c-13.594 0-25.685 7.097-33.281 18.048-7.596-10.95-19.687-18.048-33.282-18.048-13.763 0-24.96 12.123-24.96 27.025s11.197 27.026 24.96 27.026h19.819l-10.62 22.996 14.883 8.058 9.2-19.919 9.198 19.919 14.884-8.058-10.619-22.996h19.818c13.763 0 24.961-12.124 24.961-27.026s-11.198-27.025-24.961-27.025ZM50.199 99.883c0-4.967 3.733-9.008 8.32-9.008 10.849 0 20.102 7.53 23.536 18.017H58.519c-4.587 0-8.32-4.042-8.32-9.009Zm74.883 9.009h-23.535c3.433-10.487 12.687-18.017 23.535-18.017 4.588 0 8.32 4.04 8.32 9.008 0 4.967-3.732 9.009-8.32 9.009Z"/></g><defs><clipPath id="a"><path fill="#fff" transform="translate(0 .19)" d="M0 0h284v307.489H0z"/></clipPath></defs></svg>
